X: 19
T:Highland Mary (Bampton)
M:4/4
L:1/8
O:England; Oxfordshire; Bampton.
B:Lionel Bacon, A Handbook of Morris Dances
Z:http://www.themorrisring.org/music/handbook-morris-dances
P:A(AB2)4
K:A
P:A
(3EFG|:A2BA GFE2|A2Bc d2cd |e2ef edcB|1A2c2 E3F/G/:|2A2G2 A4||
P:B
  ABcd e2e2|feec (3ded cB|e2ef edcB| ABcA E3F/G/|
  A2BA GFE2|A2Bc d2cd |e2ef edcB| A2G2 A4 ||

